assets/imgs/theme/icons/plane-color.svg

<svg width="40" height="40" viewBox="0 0 40 40" fill="none" xmlns="http://www.w3.org/2000/svg">
<g clip-path="url(#clip0_148_2796)">
<path d="M2.40779 11.1152C1.84972 11.2746 1.34295 11.577 0.937639 11.9925C0.532326 12.4079 0.242513 12.922 0.0968766 13.4838C-0.0487598 14.0457 -0.0451717 14.6358 0.107286 15.1958C0.259744 15.7558 0.555787 16.2663 0.966121 16.6768L6.65279 22.3568V33.3335H17.6411L23.3661 39.0502C23.6732 39.3604 24.0386 39.6067 24.4414 39.7749C24.8442 39.9431 25.2763 40.0299 25.7128 40.0302C25.9996 40.0296 26.2852 39.9926 26.5628 39.9202C27.1244 39.7787 27.6388 39.4918 28.0543 39.0883C28.4698 38.6848 28.7716 38.179 28.9295 37.6218L39.9861 0.0351562L2.40779 11.1152ZM3.33445 14.3202L31.7145 5.95349L9.98945 27.6435V20.9768L3.33445 14.3202ZM25.7345 36.6935L19.0228 30.0002H12.3561L34.0778 8.29682L25.7345 36.6935Z" fill="#9777FA"/>
</g>
<defs>
<clipPath id="clip0_148_2796">
<rect width="40" height="40" fill="white"/>
</clipPath>
</defs>
</svg>

<?xml version="1.0" encoding="UTF-8"?><svg id="Layer_1" xmlns="http://www.w3.org/2000/svg" xmlns:xlink="http://www.w3.org/1999/xlink" viewBox="0 0 40 40"><defs><style>.cls-1{fill:#2b4eff;}.cls-2{clip-path:url(#clippath);}.cls-3{fill:none;}</style><clipPath id="clippath"><rect class="cls-3" width="40" height="40"/></clipPath></defs><g class="cls-2"><path class="cls-1" d="M2.42,11.08c-.56,.16-1.06,.46-1.47,.88-.41,.42-.7,.93-.84,1.49-.15,.56-.14,1.15,.01,1.71,.15,.56,.45,1.07,.86,1.48l5.69,5.68v10.98h10.99l5.73,5.72c.31,.31,.67,.56,1.08,.72,.4,.17,.83,.26,1.27,.26,.29,0,.57-.04,.85-.11,.56-.14,1.08-.43,1.49-.83s.72-.91,.88-1.47L40,0,2.42,11.08Zm.93,3.2L31.73,5.92,10,27.61v-6.67L3.35,14.29Zm22.4,22.37l-6.71-6.69h-6.67L34.09,8.26l-8.34,28.4Z"/></g></svg>
